X:2
O:Macedoine
M:11/8
L:1/8
K:F
|: d2 d2 ^cdc cd e2 | f2 f2 efe ed ^c2 |
B2 B2 ABA AB ^c2 | d2 d2 BAG A4 :|
|: G2 A2 ABA GB A2 | B2 A2 ABA AB ^c2 |
d2 d2 ^cdc cd e2 | d2 d2 BAG A4 :|
